!!!!SEGMENT: Ric1001d-Missa_O_genitrix-Sanctus
!!!id: Ric1001d
!!!AGN: Mass; Sanctus
!!!voices: 4
!!!OPR: Missa O genitrix
!!!COM: Jean Richafort
!!!OTL: Sanctus
**kern	**kern	**kern	**kern
*part4	*part3	*part2	*part1
*staff4	*staff3	*staff2	*staff1
*I"Bassus	*I"Tenor	*I"Altus	*I"Superius
*I'B.	*I'T.	*I'A.	*I'S.
*clefF4	*clefGv2	*clefG2	*clefG2
*k[b-]	*k[b-]	*k[b-]	*k[b-]
*F:	*F:	*F:	*F:
*M2/1	*M2/1	*M2/1	*M2/1
*met(C|)	*met(C|)	*met(C|)	*met(C|)
=1	=1	=1	=1
!!section: Sanctus
!!!OMD: Sanctus
0r	1g	0r	0r
.	2f	.	.
.	[2g	.	.
=2	=2	=2	=2
0r	4g]	0r	0g
.	4f	.	.
.	4e	.	.
.	4d	.	.
.	1e	.	.
=3	=3	=3	=3
2r	1d	0r	0dd
2.G	.	.	.
.	2r	.	.
4A	.	.	.
4B-y	[2G	.	.
4c	.	.	.
=4	=4	=4	=4
2d	4G]	1g	0dd
.	4A	.	.
2G	4B-y	.	.
.	4c	.	.
2.B-y	2d	2f	.
.	2G	[2g	.
4A	.	.	.
=5	=5	=5	=5
1G	1B-y	4g]	1.dd
.	.	4f	.
.	.	4e	.
.	.	4d	.
1r	1A	1e	.
.	.	.	2cc
=6	=6	=6	=6
1G	2r	2.d	1b-y
.	2.d	.	.
.	.	4e	.
2F	.	2f	2a
.	4c	.	.
[2G	4B-y	[2f	[2b-y
.	4A	.	.
=7	=7	=7	=7
4G]	2B-y	2f]	4b-]
4F	.	.	4a
4E	1A	1d	2f
4D	.	.	.
1E	.	.	1g
.	2G	2c#i	.
=8	=8	=8	=8
1D	1A	2d	1.f
.	.	1a	.
[1d	1B-y	.	.
.	.	2g	2g
=9	=9	=9	=9
2d]	1A	2f	1a
2c	.	2e	.
2.B-y	2.d	2f	[1b-y
.	.	[2d	.
4A	4c	.	.
=10	=10	=10	=10
2G	2B-y	2d]	2b-]
4F	4A	1g	2cc
4E	4G	.	.
1D	2A	.	1dd
.	[2d	2f	.
=11	=11	=11	=11
1G	4d]	3g	2b-y
.	4c	.	.
.	.	3d	.
.	1B-y	.	1dd
.	.	3e	.
1D	.	1f	.
.	2A	.	[2cc
=12	=12	=12	=12
0r	1G	1B-y	2cc]
.	.	.	1b-y
.	1F	2c	.
.	.	[2d	2a
=13	=13	=13	=13
1B-y	0r	4d]	2.b-y
.	.	4e	.
.	.	4f	.
.	.	4d	4a
2c	.	2e	2g
[2d	.	[2f	2f
=14	=14	=14	=14
2d]	0r	2f]	1g
2G	.	2B-y	.
2A	.	2c	1f
[2B-y	.	[2d	.
=15	=15	=15	=15
4B-]	1B-y	4d]	1g
4A	.	4c	.
1G	.	2B-y	.
.	2c	1A	1a
2F	[2d	.	.
=16	=16	=16	=16
2.G	4d]	2G	1.b-y
.	4c	.	.
.	4B-y	1g	.
4A	4A	.	.
2B-y	2G	.	.
2F	2A	2f	[2a
=17	=17	=17	=17
2G	2B-y	2d	2a]
2C	2c	2e	2.g
1D	1A	1d	.
.	.	.	4f#i
.	.	.	2f#i
=18	=18	=18	=18
0G	1G	2r	0g
.	.	1d	.
.	2r	.	.
.	2d	4c	.
.	.	4B-y	.
=19	=19	=19	=19
0r	2c	2e-i	1r
.	2B-y	2d	.
.	1e-i	2r	1g
.	.	[2g	.
=20	=20	=20	=20
2r	1d	2g]	2.a
2D	.	2f	.
.	.	.	4b-y
2C	1r	2e	2cc
2BB-y	.	4d	2dd
.	.	4c	.
=21	=21	=21	=21
1E-i	2r	2B-y	4g
.	.	.	4a
.	1g	4G	4b-y
.	.	4A	4cc
1D	.	4B-y	4dd
.	.	4c	4ee
.	2f	[2d	[2ff
=22	=22	=22	=22
2r	2d	4d]	4ff]
.	.	4c	4ee
2A	4e	2c	2.ee
.	4f	.	.
2G	4g	4B-y	.
.	4e	4A	4dd
2F	[2f	[2a	[2dd
=23	=23	=23	=23
1B-y	2f]	2a]	2dd]
.	4e	2g	4cc
.	4d	.	4b-y
1A	2f	1a	1cc
.	2e	.	.
=24	=24	=24	=24
2r	2d	2.f	1ff
2d	2B-y	.	.
.	.	4g	.
2c	2c	2a	2ee
2B-y	[2d	[2b-y	[2dd
=25	=25	=25	=25
1e-i	4d]	2b-]	2dd]
.	4G	.	.
.	1g	4a	2cc
.	.	4g	.
1d	.	1a	1dd
.	2f#i	.	.
=26	=26	=26	=26
1G	2g	2.g	2b-y
.	2d	.	2b-y
.	.	4f	.
1r	2c	2e	2cc
.	2B-y	2d	[2dd
=27	=27	=27	=27
1C	1e-i	1g	2dd]
.	.	.	2cc
2.D	1d	1f	2b-y
.	.	.	[2a
4E	.	.	.
=28	=28	=28	=28
2F	2c	4f	2a]
.	.	4e	.
2G	2B-y	4d	1g
.	.	4c	.
1D	1A	1d	.
.	.	.	2f#i
=29	=29	=29	=29
0Gl	0Gl	0dl	0gl
=30||	=30||	=30||	=30||
*M2/1	*M2/1	*M2/1	*M2/1
*met(C|)	*met(C|)	*met(C|)	*met(C|)
!!section: Pleni sunt coeli
!!!OMD: Pleni sunt coeli
1r	0d	0r	0r
[1G	.	.	.
=31	=31	=31	=31
1G]	1d	0r	0r
1G	1e	.	.
=32	=32	=32	=32
1A	2.f	0r	0r
.	4e	.	.
2.B-y	4d	.	.
.	4c	.	.
.	2d	.	.
4A	.	.	.
=33	=33	=33	=33
4G	2B-y	0r	0r
4F	.	.	.
1G	4A	.	.
.	4G	.	.
.	[1d	.	.
4F	.	.	.
4E	.	.	.
=34	=34	=34	=34
1D	2d]	0r	0r
.	4c	.	.
.	4B-y	.	.
1r	1A	.	.
=35	=35	=35	=35
1F	1r	0r	0r
2E	[1c	.	.
[2F	.	.	.
=36	=36	=36	=36
4F]	1c]	0r	0r
4G	.	.	.
2.A	.	.	.
.	2.c	.	.
4B-y	.	.	.
[2c	.	.	.
.	4d	.	.
=37	=37	=37	=37
4c]	2e	0r	0r
4B-y	.	.	.
4A	2.f	.	.
4G	.	.	.
2F	.	.	.
.	4e	.	.
2B-y	2d	.	.
=38	=38	=38	=38
4A	2c	0r	0r
4G	.	.	.
4F	2.d	.	.
4E	.	.	.
2D	.	.	.
.	4c	.	.
2d	2B-y	.	.
=39	=39	=39	=39
4c	2A	0r	0r
4B-y	.	.	.
4A	2.c	.	.
4G	.	.	.
4A	.	.	.
4B-y	4B-y	.	.
4c	2A	.	.
4A	.	.	.
=40	=40	=40	=40
2B-y	2G	0r	0r
4A	1g	.	.
4G	.	.	.
1A	.	.	.
.	2f#i	.	.
=41	=41	=41	=41
1G	0g	0r	0r
2r	.	.	.
[2G	.	.	.
=42	=42	=42	=42
4G]	2r	0r	0r
4A	.	.	.
4B-y	2.G	.	.
4c	.	.	.
2.d	.	.	.
.	4A	.	.
.	4B-y	.	.
4c	4c	.	.
=43	=43	=43	=43
2B-y	2d	0r	0r
4A	2e	.	.
4G	.	.	.
2A	2c	.	.
2F	[2d	.	.
=44	=44	=44	=44
2G	4d]	0r	0r
.	4c	.	.
2.B-y	4B-y	.	.
.	4A	.	.
.	2G	.	.
4A	.	.	.
4G	[2g	.	.
4F	.	.	.
=45	=45	=45	=45
2G	4g]	0r	0r
.	4f	.	.
2.A	4e	.	.
.	4d	.	.
.	2e	.	.
4G	.	.	.
4F	[2f	.	.
4E	.	.	.
=46	=46	=46	=46
2D	2f]	0r	0r
2E	4e	.	.
.	4d	.	.
2F	4c	.	.
.	4d	.	.
[2G	4e	.	.
.	4f	.	.
=47	=47	=47	=47
4G]	2e	0r	0r
4F	.	.	.
4E	1d	.	.
4D	.	.	.
1E	.	.	.
.	2c#i	.	.
=48	=48	=48	=48
1D	0d	0r	0r
2r	.	.	.
[2G	.	.	.
=49	=49	=49	=49
2G]	2r	0r	0r
2G	1d	.	.
2.G	.	.	.
.	2d	.	.
4F	.	.	.
=50	=50	=50	=50
4G	2.d	0r	0r
4A	.	.	.
1B-y	.	.	.
.	4c	.	.
.	4d	.	.
.	4e	.	.
4A	[2f	.	.
4G	.	.	.
=51	=51	=51	=51
0F	2f]	0r	0r
.	4e	.	.
.	4d	.	.
.	2c	.	.
.	[2d	.	.
=52	=52	=52	=52
2r	4d]	0r	0r
.	4c	.	.
1G	1B-y	.	.
2G	4A	.	.
.	4G	.	.
=53	=53	=53	=53
2.G	1.d	0r	0r
4F	.	.	.
4G	.	.	.
4A	.	.	.
[2B-y	2d	.	.
=54	=54	=54	=54
2B-]	1d	0r	0r
4A	.	.	.
4G	.	.	.
4F	2.f	.	.
4E	.	.	.
4D	.	.	.
4C	4e	.	.
=55	=55	=55	=55
2BB-y	2d	0r	0r
1B-y	4c	.	.
.	4B-y	.	.
.	1c	.	.
2A	.	.	.
=56	=56	=56	=56
1B-y	0B-y	0r	0r
[1G	.	.	.
=57	=57	=57	=57
2G]	1r	0r	0r
2F	.	.	.
1B-y	[1d	.	.
=58	=58	=58	=58
2.A	2d]	0r	0r
.	2c	.	.
4G	.	.	.
4F	1f	.	.
4D	.	.	.
[2d	.	.	.
=59	=59	=59	=59
2d]	1e	0r	0r
2c	.	.	.
2B-y	2d	.	.
4A	[2g	.	.
4G	.	.	.
=60	=60	=60	=60
2.A	2g]	0r	0r
.	2f	.	.
4B-y	.	.	.
4c	2e	.	.
4A	.	.	.
[2B-y	[2d	.	.
=61	=61	=61	=61
2B-]	2d]	0r	0r
4A	4c	.	.
4G	4B-y	.	.
2F	2A	.	.
2G	[2d	.	.
=62	=62	=62	=62
2D	4d]	0r	0r
.	4c	.	.
1d	4B-y	.	.
.	4A	.	.
.	2B-y	.	.
4c	4A	.	.
4B-y	4G	.	.
=63	=63	=63	=63
2A	4F	0r	0r
.	4G	.	.
2.c	4A	.	.
.	4B-y	.	.
.	4c	.	.
4B-y	4d	.	.
4A	[2c	.	.
4G	.	.	.
=64	=64	=64	=64
2A	4c]	0r	0r
.	4B-y	.	.
1G	4A	.	.
.	4G	.	.
.	1A	.	.
2F#i	.	.	.
=65	=65	=65	=65
0Gl	0Gl	0r	0r
=66||	=66||	=66||	=66||
*M3/1	*M3/1	*M3/1	*M3/1
*met(C|3)	*met(C|3)	*met(C|3)	*met(C|3)
!!section: Osanna
!!!OMD: Osanna
0.r	1G	0g	0r
.	1B-y	.	.
.	1c	1e	1g
=67	=67	=67	=67
0.r	1d	1f	0b-y
.	1.e-i	1.g	.
.	.	.	1cc
.	2d	2f	.
=68	=68	=68	=68
0.r	1B-y	1d	1dd
.	0c	1g	1.ee-i
.	.	1a	.
.	.	.	2dd
=69	=69	=69	=69
0G	1d	0b-y	0dd
.	0e-i	.	.
1A	.	2a	1cc
.	.	2g	.
=70	=70	=70	=70
0B-y	0d	1f	0dd
.	.	1d	.
2A	2c	1e	1r
2G	2B-y	.	.
=71	=71	=71	=71
1F	1A	0f	0.r
1D	1F	.	.
1E	1G	2e	.
.	.	2d	.
=72	=72	=72	=72
1F	1A	1c	0.r
1.G	1.B-y	1.e	.
2F	2A	2d	.
=73	=73	=73	=73
1D	0A	0d	0.r
0E	.	.	.
.	1G	1c#i	.
=74	=74	=74	=74
0D	1A	0d	0r
.	1B-y	.	.
1r	1c	1e	1g
=75	=75	=75	=75
0.r	1d	1f	0b-y
.	0e-X	0g	.
.	.	.	1cc
=76	=76	=76	=76
0.r	1d	1a	1dd
.	1.g	0b-y	1.ee-i
.	2f	.	2dd
=77	=77	=77	=77
1F	1f	1a	0dd
1G	0e-i	1b-y	.
1A	.	1a	1cc
=78	=78	=78	=78
0B-y	1d	1f	0dd
.	1B-y	1g	.
1A	1c	1a	1r
=79	=79	=79	=79
1.G	1d	0b-y	0.r
.	1r	.	.
2E	.	.	.
1F	1r	1a	.
=80	=80	=80	=80
2G	0B-y	1.g	0.r
2A	.	.	.
2B-y	.	.	.
2G	.	2e	.
1A	1c	1f	.
=81	=81	=81	=81
1G	1d	0g	0b-y
1G	0e-i	.	.
1A	.	1r	1cc
=82	=82	=82	=82
0B-y	1d	1f	0dd
.	1B-y	1g	.
1A	1c	1a	1cc
=83	=83	=83	=83
1G	0d	1d	1b-y
1D	.	1.f	1.a
1F	1c	.	.
.	.	2e	2g
=84	=84	=84	=84
1G	1B-y	2d	0g
.	.	2c	.
0D	0A	0d	.
.	.	.	1f#i
=85	=85	=85	=85
0.Gl	0.Gl	0.dl	0.gl
=86||	=86||	=86||	=86||
*M2/1	*M2/1	*M2/1	*M2/1
*met(C|)	*met(C|)	*met(C|)	*met(C|)
!!section: Benedictus
!!!OMD: Benedictus
0r	0r	0g	1dd
.	.	.	2dd
.	.	.	2dd
=87	=87	=87	=87
0r	0r	1g	2.b-y
.	.	.	4cc
.	.	1g	4dd
.	.	.	4ee-i
.	.	.	[2dd
=88	=88	=88	=88
1d	0r	[0f	2dd]
.	.	.	4cc
.	.	.	4b-y
2d	.	.	4a
.	.	.	4g
2d	.	.	4f
.	.	.	4e
=89	=89	=89	=89
2.B-y	0r	0f_	2d
.	.	.	2.dd
4c	.	.	.
4d	.	.	.
4e-i	.	.	4cc
[2d	.	.	[2ff
=90	=90	=90	=90
4d]	0r	0f]	4ff]
4c	.	.	4ee
2B-y	.	.	2dd
1A	.	.	1cc
=91	=91	=91	=91
0G	0r	1g	0b-y
.	.	2d	.
.	.	[2g	.
=92	=92	=92	=92
0D	0r	2g]	1a
.	.	4f	.
.	.	4e	.
.	.	2f	2a
.	.	[2d	2a
=93	=93	=93	=93
0r	0r	2d]	2.f
.	.	4c	.
.	.	4B-y	4g
.	.	2A	4a
.	.	.	4b-y
.	.	[2f	[2a
=94	=94	=94	=94
1A	0r	2f]	2a]
.	.	4e	4g
.	.	4d	4f
2A	.	2c	1e
2A	.	[2a	.
=95	=95	=95	=95
2.F	0r	2a]	0r
.	.	4g	.
4G	.	4f	.
4A	.	4e	.
4B-y	.	4d	.
[2A	.	[2f	.
=96	=96	=96	=96
4A]	0r	4f]	0r
4G	.	4e	.
2F	.	1d	.
1E	.	.	.
.	.	2c#i	.
=97	=97	=97	=97
2D	0r	1d	1a
1d	.	.	.
.	.	1A	2a
2c	.	.	2a
=98	=98	=98	=98
2d	0r	2r	2.f
2D	.	1d	.
.	.	.	4g
[1F	.	.	4a
.	.	.	4b-y
.	.	2c	[2a
=99	=99	=99	=99
2F]	0r	1d	2a]
4E	.	.	4g
4D	.	.	4f
2A	.	2c	2e
2F	.	2A	[2d
=100	=100	=100	=100
2G	0r	2B-y	2d]
4F	.	2G	1g
4E	.	.	.
1D	.	1A	.
.	.	.	2f#i
=101	=101	=101	=101
2r	0r	1G	1g
1G	.	.	.
.	.	1d	1r
2F	.	.	.
=102	=102	=102	=102
4G	0r	2r	[0dd
4A	.	.	.
4B-y	.	1g	.
4c	.	.	.
1d	.	.	.
.	.	2f	.
=103	=103	=103	=103
1G	0r	2g	0dd]
.	.	2.b-y	.
1r	.	.	.
.	.	4a	.
.	.	4g	.
.	.	4f	.
=104	=104	=104	=104
1r	0r	1e	1cc
[1G	.	[1d	[1b-y
=105	=105	=105	=105
2G]	0r	1d]	2b-]
2F	.	.	2a
2G	.	2r	2b-y
[2B-y	.	2G	[2dd
=106	=106	=106	=106
4B-]	0r	1B-y	4dd]
4A	.	.	4cc
4G	.	.	4b-y
4F	.	.	4a
1E	.	1c	[1g
=107	=107	=107	=107
1D	0r	2.d	2g]
.	.	.	2f
.	.	4c	.
2r	.	4B-y	2g
.	.	4A	.
2G	.	4G	[2b-y
.	.	4F	.
=108	=108	=108	=108
1B-y	0r	4G	4b-]
.	.	4A	4a
.	.	4B-y	4g
.	.	4G	4f
1c	.	4A	1e
.	.	4G	.
.	.	[2g	.
=109	=109	=109	=109
2.d	0r	2g]	1d
.	.	2f	.
4c	.	.	.
4B-y	.	2g	[1dd
4A	.	.	.
4G	.	[2b-y	.
4F	.	.	.
=110	=110	=110	=110
1G	0r	4b-]	1dd]
.	.	4a	.
.	.	4g	.
.	.	4f	.
1A	.	1e	1cc#i
=111	=111	=111	=111
1D	0r	0d	0dd
2r	.	.	.
2d	.	.	.
=112	=112	=112	=112
2d	0r	2r	0r
2d	.	2a	.
[1c	.	2a	.
.	.	2a	.
=113	=113	=113	=113
2c]	0r	1.g	0r
4B-y	.	.	.
4A	.	.	.
4B-y	.	.	.
4A	.	.	.
4B-y	.	4f	.
4c	.	4e	.
=114	=114	=114	=114
2d	0r	4f	1r
.	.	4e	.
2B-y	.	4f	.
.	.	4g	.
2c	.	2a	2r
[2d	.	[2b-y	2dd
=115	=115	=115	=115
4d]	0r	4b-]	2dd
4c	.	4a	.
2B-y	.	1g	2dd
1A	.	.	[1cc
.	.	2f#i	.
=116	=116	=116	=116
0G	0r	1g	2cc]
.	.	.	4b-y
.	.	.	4a
.	.	2r	4b-y
.	.	.	4a
.	.	2g	4b-y
.	.	.	4cc
=117	=117	=117	=117
1r	0r	2g	2dd
.	.	2g	2b-y
2r	.	4f	2cc
.	.	4e	.
2G	.	4d	[2dd
.	.	4c	.
=118	=118	=118	=118
2G	0r	4B-y	4dd]
.	.	4A	4cc
2G	.	1d	2b-y
[1F	.	.	[1a
.	.	4c	.
.	.	4B-y	.
=119	=119	=119	=119
2F]	0r	1A	2a]
4E	.	.	4g
4D	.	.	4f
4E	.	2r	2.g
4D	.	.	.
4E	.	2g	.
4F	.	.	8fL
.	.	.	8eJ
=120	=120	=120	=120
1G	0r	2g	2d
.	.	2g	2dd
1D	.	[1f	2dd
.	.	.	2dd
=121	=121	=121	=121
0r	0r	2f]	1.cc
.	.	4e	.
.	.	4d	.
.	.	4e	.
.	.	4d	.
.	.	4e	4b-y
.	.	4f	4a
=122	=122	=122	=122
0r	0r	2g	4b-y
.	.	.	4a
.	.	2d	4b-y
.	.	.	4cc
.	.	2.f	2dd
.	.	.	[2cc
.	.	4e	.
=123	=123	=123	=123
0r	0r	2d	2cc]
.	.	4c	1b-y
.	.	4B-y	.
.	.	1c	.
.	.	.	2a
=124	=124	=124	=124
2r	0r	1B-y	0b-y
2G	.	.	.
2G	.	2r	.
2G	.	2d	.
=125	=125	=125	=125
1.F	0r	2d	2r
.	.	2d	2a
.	.	[1c	2a
4E	.	.	2a
4D	.	.	.
=126	=126	=126	=126
4E	0r	2c]	1.g
4D	.	.	.
4E	.	4B-y	.
4F	.	4A	.
2G	.	4B-y	.
.	.	4A	.
[2B-y	.	4B-y	4f
.	.	4c	4e
=127	=127	=127	=127
2B-]	0r	2d	4f
.	.	.	4e
4A	.	2B-y	4f
4G	.	.	4g
4F	.	2c	2a
4E	.	.	.
4D	.	[2d	2b-y
4E	.	.	.
=128	=128	=128	=128
2F	0r	4d]	2a
.	.	4c	.
2G	.	2B-y	1g
1D	.	1A	.
.	.	.	2f#i
=129	=129	=129	=129
2r	0r	1G	0g
2G	.	.	.
2G	.	2r	.
2G	.	2d	.
=130	=130	=130	=130
1.F	0r	2d	2r
.	.	2d	2a
.	.	[1c	2a
4E	.	.	2a
4D	.	.	.
=131	=131	=131	=131
4E	0r	2c]	1.g
4D	.	.	.
4E	.	4B-y	.
4F	.	4A	.
2G	.	4B-y	.
.	.	4A	.
[2B-y	.	4B-y	4f
.	.	4c	4e
=132	=132	=132	=132
2B-]	0r	2d	4f
.	.	.	4e
4A	.	2B-y	4f
4G	.	.	4g
4F	.	2c	2a
4E	.	.	.
4D	.	[2d	2b-y
4E	.	.	.
=133	=133	=133	=133
2F	0r	4d]	2a
.	.	4c	.
2G	.	2B-y	1g
1D	.	1A	.
.	.	.	2f#i
=134	=134	=134	=134
0Gl	0r	0Gl	0gl
==	==	==	==
*-	*-	*-	*-
!!!system-decoration: s1,s2,s3,s4
!!!RDF**kern: i = editorial accidental
!!!RDF**kern: l = terminal long
!!!ENC: David Nivarlet
!!!END: 2025/11/26
!!!EED: Benjamin Ory
!!!EEV: 2026/01/28
!!!YEC: Copyright 2026 Benjamin Ory, All Rights Reserved
!!!ONB: Translated from MusicXML on 2026/01/28
